src/assets/duotone/GlobalSearch.svg

<svg width="24" height="24" viewBox="0 0 24 24"  xmlns="http://www.w3.org/2000/svg">
<path d="M21.79 20.76L21.07 20.04C21.44 19.48 21.66 18.8 21.66 18.08C21.66 16.1 20.06 14.5 18.08 14.5C16.1 14.5 14.5 16.1 14.5 18.08C14.5 20.06 16.1 21.66 18.08 21.66C18.81 21.66 19.48 21.44 20.04 21.07L20.76 21.79C20.9 21.93 21.09 22 21.27 22C21.46 22 21.64 21.93 21.78 21.79C22.07 21.5 22.07 21.04 21.79 20.76Z" />
<path opacity="0.4" d="M2.02977 14.6299C2.02977 14.6599 2.00977 14.6999 2.00977 14.7299C2.92977 16.5699 4.42978 18.0799 6.26978 18.9899C6.29978 18.9899 6.33977 18.9699 6.36977 18.9699C6.02977 17.8099 5.76977 16.6199 5.57977 15.4299C4.37977 15.2299 3.18977 14.9699 2.02977 14.6299Z" />
<path opacity="0.4" d="M19.0701 6.42993C18.1301 4.45993 16.5401 2.86994 14.5801 1.93994C14.9401 3.12994 15.2401 4.34995 15.4401 5.56995C16.6601 5.76995 17.8801 6.05993 19.0701 6.42993Z" />
<path opacity="0.4" d="M1.93018 6.43002C3.13018 6.07002 4.35019 5.77004 5.57019 5.57004C5.77019 4.38004 6.02018 3.20004 6.36018 2.04004C6.33018 2.04004 6.29018 2.02002 6.26018 2.02002C4.38018 2.95002 2.85018 4.52002 1.93018 6.43002Z" />
<path opacity="0.4" d="M13.8202 5.36023C13.5802 4.06023 13.2802 2.76024 12.8502 1.50024C12.8302 1.43024 12.8302 1.37025 12.8202 1.29025C12.0802 1.11025 11.3002 0.990234 10.5002 0.990234C9.69018 0.990234 8.92018 1.10025 8.17018 1.29025C8.16018 1.36025 8.17018 1.42024 8.15018 1.50024C7.73018 2.76024 7.42018 4.06023 7.18018 5.36023C9.39018 5.12023 11.6102 5.12023 13.8202 5.36023Z" />
<path opacity="0.4" d="M5.36023 7.18018C4.05023 7.42018 2.76023 7.72018 1.50023 8.15018C1.43023 8.17018 1.37022 8.17018 1.29022 8.18018C1.11022 8.92018 0.990234 9.70018 0.990234 10.5002C0.990234 11.3102 1.10022 12.0802 1.29022 12.8302C1.36022 12.8402 1.42023 12.8302 1.50023 12.8502C2.76023 13.2702 4.05023 13.5802 5.36023 13.8202C5.12023 11.6102 5.12023 9.39018 5.36023 7.18018Z" />
<path opacity="0.4" d="M19.6999 8.18018C19.6299 8.18018 19.5699 8.17018 19.4899 8.15018C18.2299 7.73018 16.9299 7.42018 15.6299 7.18018C15.8799 9.39018 15.8799 11.6102 15.6299 13.8102C16.9299 13.5702 18.2299 13.2702 19.4899 12.8402C19.5599 12.8202 19.6199 12.8302 19.6999 12.8202C19.8799 12.0702 19.9999 11.3002 19.9999 10.4902C19.9999 9.70017 19.8899 8.93018 19.6999 8.18018Z" />
<path opacity="0.4" d="M7.18018 15.6401C7.42018 16.9501 7.72018 18.2401 8.15018 19.5001C8.17018 19.5701 8.16018 19.6301 8.17018 19.7101C8.92018 19.8901 9.69018 20.0101 10.5002 20.0101C11.3002 20.0101 12.0802 19.9001 12.8202 19.7101C12.8302 19.6401 12.8302 19.5801 12.8502 19.5001C13.2702 18.2401 13.5802 16.9501 13.8202 15.6401C12.7202 15.7601 11.6102 15.8501 10.5002 15.8501C9.39018 15.8401 8.28018 15.7601 7.18018 15.6401Z" />
<path opacity="0.4" d="M6.9501 6.9501C6.6501 9.3101 6.6501 11.6901 6.9501 14.0601C9.3101 14.3601 11.6901 14.3601 14.0601 14.0601C14.3601 11.7001 14.3601 9.3201 14.0601 6.9501C11.6901 6.6501 9.3101 6.6501 6.9501 6.9501Z" />
</svg>

<?xml version="1.0" encoding="UTF-8"?>
<svg width="24" height="24" viewBox="0 0 24 24" xmlns="http://www.w3.org/2000/svg">
 <path d="m21.79 20.76-0.72-0.72c0.37-0.56 0.59-1.24 0.59-1.96 0-1.98-1.6-3.58-3.58-3.58s-3.58 1.6-3.58 3.58 1.6 3.58 3.58 3.58c0.73 0 1.4-0.22 1.96-0.59l0.72 0.72c0.14 0.14 0.33 0.21 0.51 0.21 0.19 0 0.37-0.07 0.51-0.21 0.29-0.29 0.29-0.75 0.01-1.03z"/>
 <path d="m2.0298 14.63c0 0.03-0.02 0.07-0.02 0.1 0.92 1.84 2.42 3.35 4.26 4.26 0.03 0 0.06999-0.02 0.09999-0.02-0.34-1.16-0.6-2.35-0.79-3.54-1.2-0.2-2.39-0.46-3.55-0.8z" opacity=".4"/>
 <path d="m19.07 6.4299c-0.94-1.97-2.53-3.56-4.49-4.49 0.36 1.19 0.66 2.41 0.86 3.63 1.22 0.2 2.44 0.48998 3.63 0.85998z" opacity=".4"/>
 <path d="m1.9302 6.43c1.2-0.36 2.42-0.65998 3.64-0.85998 0.2-1.19 0.44999-2.37 0.78999-3.53-0.03 0-0.07-0.02002-0.1-0.02002-1.88 0.93-3.41 2.5-4.33 4.41z" opacity=".4"/>
 <path d="m13.82 5.3602c-0.24-1.3-0.54-2.6-0.97-3.86-0.02-0.07-0.02-0.12999-0.03-0.20999-0.74-0.18-1.52-0.30002-2.32-0.30002-0.81002 0-1.58 0.11002-2.33 0.30002-0.01 0.07 0 0.12999-0.02 0.20999-0.42 1.26-0.73 2.56-0.97 3.86 2.21-0.24 4.43-0.24 6.64 0z" opacity=".4"/>
 <path d="m5.3602 7.1802c-1.31 0.24-2.6 0.54-3.86 0.97-0.07 0.02-0.13001 0.02-0.21001 0.03-0.18 0.74-0.29999 1.52-0.29999 2.32 0 0.81 0.10999 1.58 0.29999 2.33 0.07 0.01 0.13001 0 0.21001 0.02 1.26 0.42 2.55 0.73 3.86 0.97-0.24-2.21-0.24-4.43 0-6.64z" opacity=".4"/>
 <path d="m19.7 8.1802c-0.07 0-0.13-0.01-0.21-0.03-1.26-0.42-2.56-0.73-3.86-0.97 0.25 2.21 0.25 4.43 0 6.63 1.3-0.24 2.6-0.54 3.86-0.97 0.07-0.02 0.13-0.01 0.21-0.02 0.18-0.75 0.3-1.52 0.3-2.33 0-0.79003-0.11-1.56-0.3-2.31z" opacity=".4"/>
 <path d="m7.1802 15.64c0.24 1.31 0.54 2.6 0.97 3.86 0.02 0.07 0.01 0.13 0.02 0.21 0.75 0.18 1.52 0.3 2.33 0.3 0.8 0 1.58-0.11 2.32-0.3 0.01-0.07 0.01-0.13 0.03-0.21 0.42-1.26 0.73-2.55 0.97-3.86-1.1 0.12-2.21 0.21-3.32 0.21-1.11-0.01-2.22-0.09-3.32-0.21z" opacity=".4"/>
 <path d="m6.9501 6.9501c-0.3 2.36-0.3 4.74 0 7.11 2.36 0.3 4.74 0.3 7.11 0 0.3-2.36 0.3-4.74 0-7.11-2.37-0.3-4.75-0.3-7.11 0z" opacity=".4"/>
</svg>
